X: 11847
T: Elusive Otter, The
R: reel
M: 4/4
K: Amixolydian
Ac (3ccc ecBA|BcBA FEFA|Ec (3ccc ecBA|1 fecB ABcB:|2 fecB ABce||
Aaaf ecef|Aaaf edcB|Aaaf ecef|ABcd edcB|
Aaaf ecef|Aaaf edcB|Aaaf ecef|gfed cdcB||

